Newaita/actions/32/run-build-clean.svg

<svg height="32" viewBox="0 0 32 32" width="32" xmlns="http://www.w3.org/2000/svg"><g fill="#424242"><path d="m14.554688 2.871094c-.335938 0-.621094.242187-.679688.574218l-.394531 2.367188c-1.152344.265625-2.234375.71875-3.210938 1.324219l-1.945312-1.390625c-.113281-.082032-.246094-.125-.386719-.128906-.1875-.003907-.367188.070312-.5.203124l-1.871094 1.871094c-.234375.234375-.265625.609375-.070312.882813l1.390625 1.949219c-.605469.972656-1.058594 2.054687-1.324219 3.210937l-2.367188.394531c-.332031.054688-.574218.339844-.574218.675782v2.644531c0 .335937.242187.621093.574218.675781l2.367188.394531c.265625 1.15625.71875 2.238281 1.324219 3.210938l-1.390625 1.949219c-.195313.273437-.164063.648437.070312.882812l1.871094 1.871094c.238281.238281.613281.269531.886719.074218l1.949219-1.390624c.972656.605468 2.054687 1.058593 3.207031 1.324218l.394531 2.367188c.058594.332031.34375.574218.679688.574218h2.644531c.335937 0 .621093-.242187.675781-.574218l.394531-2.367188c.085938-.019531.167969-.039062.253907-.0625v-2.761718c-.828126.289062-1.71875.449218-2.648438.449218-4.394531 0-7.9375-3.542968-7.9375-7.941406 0-4.394531 3.542969-7.9375 7.9375-7.9375 4.398438 0 7.941406 3.542969 7.941406 7.9375 0 .929688-.160156 1.820312-.449218 2.648438h2.761718c.023438-.085938.042969-.167969.0625-.253907l2.367188-.394531c.332031-.054688.574218-.339844.574218-.675781v-2.644531c0-.335938-.242187-.621094-.574218-.675782l-2.367188-.394531c-.265625-1.15625-.71875-2.238281-1.324218-3.210937l1.390624-1.949219c.195313-.273438.164063-.648438-.074218-.882813l-1.871094-1.871094c-.128906-.132812-.308594-.207031-.492188-.203124-.140624.003906-.277343.046874-.390624.128906l-1.949219 1.390625c-.972657-.605469-2.054688-1.058594-3.210938-1.324219l-.394531-2.367188c-.054688-.332031-.339844-.574218-.675781-.574218zm.578124 1.371094h1.484376l.226562 1.34375c-.320312-.027344-.640625-.042969-.96875-.042969-.324219 0-.644531.015625-.964844.042969zm-7.132812 2.957031 1.097656.785156c-.496094.414063-.949218.871094-1.363281 1.363281l-.785156-1.097656zm15.753906 0 1.050782 1.050781-.785157 1.097656c-.414062-.492187-.871093-.949218-1.363281-1.363281zm-18.417968 7.960937c-.027344.320313-.042969.640625-.042969.964844 0 .328125.015625.648438.042969.96875l-1.34375-.226562v-1.480469zm21.082031 0 1.339843.226563v1.480469l-1.339843.226562c.027343-.320312.042969-.640625.042969-.96875 0-.324219-.015626-.644531-.042969-.964844zm-18.683594 7.746094c.414063.492188.871094.949219 1.363281 1.363281l-1.097656.785157-1.050781-1.050782zm7.175781 3.761719c.320313.027343.640625.042969.964844.042969.328125 0 .648438-.015626.96875-.042969l-.226562 1.34375h-1.484376zm0 0"/><path d="m13.230469 11.496094c-.390625-.015625-.714844.296875-.714844.683594v7.941406c0 .53125.582031.859375 1.039063.585937l6.617187-3.96875c.441406-.265625.441406-.910156 0-1.175781l-6.617187-3.96875c-.097657-.058594-.210938-.09375-.324219-.097656zm0 0"/><path d="m28.398438 24.066406h.09375c.339843 0 .613281.292969.613281.660156v3.96875c0 .367188-.273438.660157-.613281.660157h-.09375c-.339844 0-.613282-.292969-.613282-.660157v-3.96875c0-.367187.273438-.660156.613282-.660156zm0 0"/><path d="m21.832031 24.066406h6.613281c.367188 0 .660157.292969.660157.660156v1.324219c0 .363281-.292969.660157-.660157.660157h-6.613281c-.367187 0-.664062-.296876-.664062-.660157v-1.324219c0-.367187.296875-.660156.664062-.660156zm0 0"/><path d="m21.832031 24.066406c.363281 0 .660157.292969.660157.660156v3.96875c0 .367188-.296876.660157-.660157.660157-.367187 0-.664062-.292969-.664062-.660157v-3.96875c0-.367187.296875-.660156.664062-.660156zm0 0"/><path d="m25.136719 21.417969c.367187 0 .664062.296875.664062.664062v6.613281c0 .367188-.296875.660157-.664062.660157-.363281 0-.660157-.292969-.660157-.660157v-6.613281c0-.367187.296876-.664062.660157-.664062zm0 0"/></g></svg>

<svg xmlns="http://www.w3.org/2000/svg" xmlns:xlink="http://www.w3.org/1999/xlink" width="32px" height="32px" viewBox="0 0 32 32" version="1.1">
<g id="surface1">
     <defs>
  <style id="current-color-scheme" type="text/css">
   .ColorScheme-Text { color:#424242; } .ColorScheme-Highlight { color:#eeeeee; }
  </style>
 </defs>
<path style="fill:currentColor" class="ColorScheme-Text" d="M 14.554688 2.871094 C 14.21875 2.871094 13.933594 3.113281 13.875 3.445312 L 13.480469 5.8125 C 12.328125 6.078125 11.246094 6.53125 10.269531 7.136719 L 8.324219 5.746094 C 8.210938 5.664062 8.078125 5.621094 7.9375 5.617188 C 7.75 5.613281 7.570312 5.6875 7.4375 5.820312 L 5.566406 7.691406 C 5.332031 7.925781 5.300781 8.300781 5.496094 8.574219 L 6.886719 10.523438 C 6.28125 11.496094 5.828125 12.578125 5.5625 13.734375 L 3.195312 14.128906 C 2.863281 14.183594 2.621094 14.46875 2.621094 14.804688 L 2.621094 17.449219 C 2.621094 17.785156 2.863281 18.070312 3.195312 18.125 L 5.5625 18.519531 C 5.828125 19.675781 6.28125 20.757812 6.886719 21.730469 L 5.496094 23.679688 C 5.300781 23.953125 5.332031 24.328125 5.566406 24.5625 L 7.4375 26.433594 C 7.675781 26.671875 8.050781 26.703125 8.324219 26.507812 L 10.273438 25.117188 C 11.246094 25.722656 12.328125 26.175781 13.480469 26.441406 L 13.875 28.808594 C 13.933594 29.140625 14.21875 29.382812 14.554688 29.382812 L 17.199219 29.382812 C 17.535156 29.382812 17.820312 29.140625 17.875 28.808594 L 18.269531 26.441406 C 18.355469 26.421875 18.4375 26.402344 18.523438 26.378906 L 18.523438 23.617188 C 17.695312 23.90625 16.804688 24.066406 15.875 24.066406 C 11.480469 24.066406 7.9375 20.523438 7.9375 16.125 C 7.9375 11.730469 11.480469 8.1875 15.875 8.1875 C 20.273438 8.1875 23.816406 11.730469 23.816406 16.125 C 23.816406 17.054688 23.65625 17.945312 23.367188 18.773438 L 26.128906 18.773438 C 26.152344 18.6875 26.171875 18.605469 26.191406 18.519531 L 28.558594 18.125 C 28.890625 18.070312 29.132812 17.785156 29.132812 17.449219 L 29.132812 14.804688 C 29.132812 14.46875 28.890625 14.183594 28.558594 14.128906 L 26.191406 13.734375 C 25.925781 12.578125 25.472656 11.496094 24.867188 10.523438 L 26.257812 8.574219 C 26.453125 8.300781 26.421875 7.925781 26.183594 7.691406 L 24.3125 5.820312 C 24.183594 5.6875 24.003906 5.613281 23.820312 5.617188 C 23.679688 5.621094 23.542969 5.664062 23.429688 5.746094 L 21.480469 7.136719 C 20.507812 6.53125 19.425781 6.078125 18.269531 5.8125 L 17.875 3.445312 C 17.820312 3.113281 17.535156 2.871094 17.199219 2.871094 Z M 15.132812 4.242188 L 16.617188 4.242188 L 16.84375 5.585938 C 16.523438 5.558594 16.203125 5.542969 15.875 5.542969 C 15.550781 5.542969 15.230469 5.558594 14.910156 5.585938 Z M 8 7.199219 L 9.097656 7.984375 C 8.601562 8.398438 8.148438 8.855469 7.734375 9.347656 L 6.949219 8.25 Z M 23.753906 7.199219 L 24.804688 8.25 L 24.019531 9.347656 C 23.605469 8.855469 23.148438 8.398438 22.65625 7.984375 Z M 5.335938 15.160156 C 5.308594 15.480469 5.292969 15.800781 5.292969 16.125 C 5.292969 16.453125 5.308594 16.773438 5.335938 17.09375 L 3.992188 16.867188 L 3.992188 15.386719 Z M 26.417969 15.160156 L 27.757812 15.386719 L 27.757812 16.867188 L 26.417969 17.09375 C 26.445312 16.773438 26.460938 16.453125 26.460938 16.125 C 26.460938 15.800781 26.445312 15.480469 26.417969 15.160156 Z M 7.734375 22.90625 C 8.148438 23.398438 8.605469 23.855469 9.097656 24.269531 L 8 25.054688 L 6.949219 24.003906 Z M 14.910156 26.667969 C 15.230469 26.695312 15.550781 26.710938 15.875 26.710938 C 16.203125 26.710938 16.523438 26.695312 16.84375 26.667969 L 16.617188 28.011719 L 15.132812 28.011719 Z M 14.910156 26.667969 "/>
     <defs>
  <style id="current-color-scheme" type="text/css">
   .ColorScheme-Text { color:#424242; } .ColorScheme-Highlight { color:#eeeeee; }
  </style>
 </defs>
<path style="fill:currentColor" class="ColorScheme-Text" d="M 13.230469 11.496094 C 12.839844 11.480469 12.515625 11.792969 12.515625 12.179688 L 12.515625 20.121094 C 12.515625 20.652344 13.097656 20.980469 13.554688 20.707031 L 20.171875 16.738281 C 20.613281 16.472656 20.613281 15.828125 20.171875 15.5625 L 13.554688 11.59375 C 13.457031 11.535156 13.34375 11.5 13.230469 11.496094 Z M 13.230469 11.496094 "/>
     <defs>
  <style id="current-color-scheme" type="text/css">
   .ColorScheme-Text { color:#424242; } .ColorScheme-Highlight { color:#eeeeee; }
  </style>
 </defs>
<path style="fill:currentColor" class="ColorScheme-Text" d="M 28.398438 24.066406 L 28.492188 24.066406 C 28.832031 24.066406 29.105469 24.359375 29.105469 24.726562 L 29.105469 28.695312 C 29.105469 29.0625 28.832031 29.355469 28.492188 29.355469 L 28.398438 29.355469 C 28.058594 29.355469 27.785156 29.0625 27.785156 28.695312 L 27.785156 24.726562 C 27.785156 24.359375 28.058594 24.066406 28.398438 24.066406 Z M 28.398438 24.066406 "/>
     <defs>
  <style id="current-color-scheme" type="text/css">
   .ColorScheme-Text { color:#424242; } .ColorScheme-Highlight { color:#eeeeee; }
  </style>
 </defs>
<path style="fill:currentColor" class="ColorScheme-Text" d="M 21.832031 24.066406 L 28.445312 24.066406 C 28.8125 24.066406 29.105469 24.359375 29.105469 24.726562 L 29.105469 26.050781 C 29.105469 26.414062 28.8125 26.710938 28.445312 26.710938 L 21.832031 26.710938 C 21.464844 26.710938 21.167969 26.414062 21.167969 26.050781 L 21.167969 24.726562 C 21.167969 24.359375 21.464844 24.066406 21.832031 24.066406 Z M 21.832031 24.066406 "/>
     <defs>
  <style id="current-color-scheme" type="text/css">
   .ColorScheme-Text { color:#424242; } .ColorScheme-Highlight { color:#eeeeee; }
  </style>
 </defs>
<path style="fill:currentColor" class="ColorScheme-Text" d="M 21.832031 24.066406 C 22.195312 24.066406 22.492188 24.359375 22.492188 24.726562 L 22.492188 28.695312 C 22.492188 29.0625 22.195312 29.355469 21.832031 29.355469 C 21.464844 29.355469 21.167969 29.0625 21.167969 28.695312 L 21.167969 24.726562 C 21.167969 24.359375 21.464844 24.066406 21.832031 24.066406 Z M 21.832031 24.066406 "/>
     <defs>
  <style id="current-color-scheme" type="text/css">
   .ColorScheme-Text { color:#424242; } .ColorScheme-Highlight { color:#eeeeee; }
  </style>
 </defs>
<path style="fill:currentColor" class="ColorScheme-Text" d="M 25.136719 21.417969 C 25.503906 21.417969 25.800781 21.714844 25.800781 22.082031 L 25.800781 28.695312 C 25.800781 29.0625 25.503906 29.355469 25.136719 29.355469 C 24.773438 29.355469 24.476562 29.0625 24.476562 28.695312 L 24.476562 22.082031 C 24.476562 21.714844 24.773438 21.417969 25.136719 21.417969 Z M 25.136719 21.417969 "/>
</g>
</svg>
